src/main/resources/icons/DsmIcons/icons/toggleCycles_dark.svg

<svg xmlns="http://www.w3.org/2000/svg" width="16" height="16" viewBox="0 0 16 16"><rect id="frame" width="16" height="16" fill="none"/><path fill="#AFB1B3" fill-rule="evenodd" d="M11.2 3L8 5V3H3v10h1.8L8 11v2h5V3h-1.8zM8 14v2l-3.2-2H2V2h6V0l3.2 2H14v12H8z"/></svg>

<svg xmlns="http://www.w3.org/2000/svg" width="16" height="16" viewBox="0 0 16 16">
  <path fill="#AFB1B3" fill-rule="evenodd" d="M11.2,3 L8,5 L8,3 L3,3 L3,13 L4.8,13 L8,11 L8,13 L13,13 L13,3 L11.2,3 Z M8,14 L8,16 L4.8,14 L3,14 L2,14 L2,2 L3,2 L8,2 L8,1.2246468e-16 L11.2,2 L14,2 L14,3 L14,14 L13,14 L8,14 Z"/>
</svg>
